X: 41973
T: Wallop The Spot
R: jig
M: 6/8
K: Dmajor
|:~F3 DAF|BAF AFE|~F3 DAF|BAF EDE|
~F3 DAF|BAF d2e|f2d edB|BAF AFE:|
|:Bcd eAA|fAA eAA|Bcd ecA|BAF AFE|
Bcd e2a|fed efg|age edB|BAF AFE:|
|:DFA d2d|edc dAF|DFA d2A|BAF AFE|
DFA d2d|edc d2e|f2d edB|BAF AFE:|

